build/images/icon/icon-red-question.svg

<?xml version="1.0" encoding="UTF-8"?>
<svg width="20px" height="20px" viewBox="0 0 20 20" version="1.1" xmlns="http://www.w3.org/2000/svg" xmlns:xlink="http://www.w3.org/1999/xlink">
    <!-- Generator: sketchtool 54.1 (76490) - https://sketchapp.com -->
    <title>774CD0C2-0B0C-44A9-87BF-CD285DD680FD</title>
    <desc>Created with sketchtool.</desc>
    <g id="Symbols" stroke="none" stroke-width="1" fill="none" fill-rule="evenodd">
        <g id="icon/question/s/red">
            <g id="Group-15">
                <g id="Group">
                    <circle id="Oval" stroke="#F24C3D" stroke-width="1.2" cx="10" cy="10" r="9.4"></circle>
                    <path d="M8.98230912,11.7652778 C8.98230912,11.2356455 9.0858773,10.7976869 9.29301676,10.4513889 C9.50015622,10.1050909 9.80204643,9.72315024 10.1986965,9.30555556 C10.4895731,8.99999847 10.7033202,8.74282512 10.8399441,8.53402778 C10.976568,8.32523044 11.044879,8.08842725 11.044879,7.82361111 C11.044879,7.44675737 10.9148678,7.14884369 10.6548417,6.92986111 C10.3948156,6.71087853 10.0488538,6.60138889 9.616946,6.60138889 C9.20266708,6.60138889 8.83466952,6.70069345 8.51294227,6.89930556 C8.19121503,7.09791766 7.92017491,7.37546118 7.69981378,7.73194444 L6.1,6.64722222 C6.47020669,5.99536711 6.97041895,5.49120549 7.60065177,5.13472222 C8.23088459,4.77823896 8.97789761,4.6 9.84171322,4.6 C10.8553744,4.6 11.6684948,4.84953454 12.2810987,5.34861111 C12.8937026,5.84768768 13.2,6.54027335 13.2,7.42638889 C13.2,7.84398357 13.1405034,8.21064657 13.0215084,8.52638889 C12.9025134,8.84213121 12.7570772,9.10948965 12.5851955,9.32847222 C12.4133139,9.5474548 12.1907525,9.79953561 11.9175047,10.0847222 C11.5913702,10.420835 11.3533837,10.7034711 11.2035382,10.9326389 C11.0536926,11.1618067 10.9787709,11.4393502 10.9787709,11.7652778 L8.98230912,11.7652778 Z M10.0013966,15.35 C9.62473431,15.35 9.31008817,15.219955 9.05744879,14.9598611 C8.80480941,14.6997672 8.67849162,14.3832426 8.67849162,14.0102778 C8.67849162,13.6373129 8.80251273,13.3256957 9.05055866,13.0754167 C9.29860459,12.8251376 9.61554742,12.7 10.0013966,12.7 C10.3872459,12.7 10.7041887,12.8251376 10.9522346,13.0754167 C11.2002806,13.3256957 11.3243017,13.6373129 11.3243017,14.0102778 C11.3243017,14.3832426 11.1979839,14.6997672 10.9453445,14.9598611 C10.6927051,15.219955 10.378059,15.35 10.0013966,15.35 Z" id="?" fill="#F24C3D"></path>
                </g>
            </g>
        </g>
    </g>
</svg>

<svg width="20" height="20" xmlns="http://www.w3.org/2000/svg"><g fill="none" fill-rule="evenodd"><circle stroke="#F24C3D" stroke-width="1.2" cx="10" cy="10" r="9.4"/><path d="M8.982 11.765c0-.53.104-.967.311-1.314.207-.346.509-.728.906-1.145a5.82 5.82 0 00.64-.772 1.26 1.26 0 00.206-.71c0-.377-.13-.675-.39-.894-.26-.22-.606-.329-1.038-.329-.414 0-.782.1-1.104.298a2.502 2.502 0 00-.813.833L6.1 6.647a3.92 3.92 0 011.5-1.512c.63-.357 1.378-.535 2.242-.535 1.013 0 1.826.25 2.44.749.612.499.918 1.191.918 2.077 0 .418-.06.785-.178 1.1a3.008 3.008 0 01-.437.802c-.172.22-.394.472-.667.757-.327.336-.565.618-.714.848-.15.229-.225.506-.225.832H8.982zm1.02 3.585c-.377 0-.692-.13-.945-.39a1.312 1.312 0 01-.379-.95 1.275 1.275 0 011.323-1.31 1.275 1.275 0 011.323 1.31c0 .373-.126.69-.379.95-.252.26-.567.39-.944.39z" fill="#F24C3D"/></g></svg>
